icons/contentlayer.svg

<!--
  - The MIT License (MIT)
  -
  - Copyright (c) 2015-2024 Elior "Mallowigi" Boukhobza
  -
  - Permission is hereby granted, free of charge, to any person obtaining a copy
  - of this software and associated documentation files (the "Software"), to deal
  - in the Software without restriction, including without limitation the rights
  - to use, copy, modify, merge, publish, distribute, sublicense, and/or sell
  - copies of the Software, and to permit persons to whom the Software is
  - furnished to do so, subject to the following conditions:
  -
  - The above copyright notice and this permission notice shall be included in all
  - copies or substantial portions of the Software.
  -
  - THE SOFTWARE IS PROVIDED "AS IS", WITHOUT WARRANTY OF ANY KIND, EXPRESS OR
  - IMPLIED, INCLUDING BUT NOT LIMITED TO THE WARRANTIES OF MERCHANTABILITY,
  - FITNESS FOR A PARTICULAR PURPOSE AND NONINFRINGEMENT. IN NO EVENT SHALL THE
  - AUTHORS OR COPYRIGHT HOLDERS BE LIABLE FOR ANY CLAIM, DAMAGES OR OTHER
  - LIABILITY, WHETHER IN AN ACTION OF CONTRACT, TORT OR OTHERWISE, ARISING FROM,
  - OUT OF OR IN CONNECTION WITH THE SOFTWARE OR THE USE OR OTHER DEALINGS IN THE
  - SOFTWARE.
  -
  -->

<svg viewBox="0 0 24 24" fill="none" xmlns="http://www.w3.org/2000/svg" width="16px" height="16px">
  <path fill-rule="evenodd" clip-rule="evenodd" data-iconColor="ContentLayer"
        d="M11.3197 2.34519C11.9551 1.87745 12.8246 1.88581 13.4508 2.36569L19.8467 7.26664C20.7685 7.97303 20.7685 9.35827 19.8467 10.0647L17.4075 11.9338L19.8869 13.9201C20.7887 14.6425 20.7644 16.0188 19.8376 16.7091L13.2725 21.5989C12.5978 22.1013 11.6616 22.0607 11.0334 21.5017L5.89642 16.9308L5.17804 16.3157C1.97223 13.5703 2.36742 8.51406 5.95425 6.29483L11.3197 2.34519ZM16.4607 11.1752L13.4789 8.7866C12.8423 8.27654 11.9381 8.2668 11.2905 8.76304L9.08425 10.4536C8.16239 11.1601 8.16239 12.5453 9.08425 13.2517L11.3067 14.9547C11.943 15.4423 12.8288 15.4423 13.4651 14.9547L16.4445 12.6717L19.1474 14.837C19.448 15.0778 19.4399 15.5366 19.1309 15.7668L12.5658 20.6565C12.3409 20.824 12.0289 20.8105 11.8195 20.6241L6.67834 16.0495L5.9473 15.4233C3.34146 13.1918 3.66858 9.07799 6.5946 7.2834L6.61585 7.27037L12.021 3.29153C12.2328 3.13562 12.5226 3.1384 12.7314 3.29836L19.1272 8.19931C19.4344 8.43478 19.4344 8.89653 19.1272 9.13199L16.4607 11.1752ZM15.4977 11.9132L12.7456 14.022C12.5336 14.1846 12.2382 14.1846 12.0262 14.022L9.80371 12.319C9.49643 12.0835 9.49643 11.6218 9.80371 11.3863L12.01 9.69572C12.2258 9.53031 12.5272 9.53356 12.7394 9.70358L15.4977 11.9132Z"
        fill="#7C4DFF"/>
</svg>

<svg xmlns="http://www.w3.org/2000/svg" fill="none" viewBox="0 0 24 24"><path fill="#7c4dff" fill-rule="evenodd" d="M11.32 2.345a1.775 1.775 0 0 1 2.13.02l6.397 4.902a1.76 1.76 0 0 1 0 2.798l-2.44 1.869 2.48 1.986a1.76 1.76 0 0 1-.05 2.79l-6.564 4.889a1.775 1.775 0 0 1-2.24-.097L5.896 16.93l-.718-.615c-3.206-2.746-2.81-7.802.776-10.021zm5.14 8.83-2.98-2.388a1.775 1.775 0 0 0-2.188-.024l-2.207 1.69a1.76 1.76 0 0 0 0 2.799l2.223 1.703a1.775 1.775 0 0 0 2.158 0l2.98-2.283 2.702 2.165c.301.24.293.7-.016.93l-6.565 4.89a.59.59 0 0 1-.747-.033L6.68 16.05l-.732-.627c-2.606-2.231-2.278-6.345.648-8.14l.02-.013 5.406-3.978a.59.59 0 0 1 .71.006L19.127 8.2a.587.587 0 0 1 0 .933zm-.962.738-2.752 2.109a.59.59 0 0 1-.72 0l-2.222-1.703a.587.587 0 0 1 0-.933l2.206-1.69a.59.59 0 0 1 .73.008z" clip-rule="evenodd" data-iconColor="ContentLayer"/></svg>
